X:1
T:Galway Belle 
T:69th Street Polka
M:2/4
L:1/8
R: Polka
K: Am
|: "Am"A>B cd | ea e2 | "G"dB GB | "Em"AB GE|
 "Am"A>B cd | ea e2 | "G"dB GB | "Am"BA A2 :|
|:"Am"ea e2|ea e2|"G"dB GB|"Em"AB GE|
|1"Am"ea e2|ea e2|"G"dB GB| "Am"BA A2:|
|2 "Am"A>B cd|ea e2| "G"dBGB|"Am"BA A2|]
